X:1
T:Johnny Lad
M:4/4
L:1/8
K:G
 c3/2- B/2| A3/2 D/2D/2 E3/2 DEG-A| G3/2 E/2D/2 C3/2 d2 cd| e3/2 d/2d/2 c3/2 A/2 G3/2 E3/2 G/2|\
 A2 D/2 D3/2 D2| c3/2- B/2| A3/2 D/2D/2 E3/2 DE GA| G3/2 E/2D/2 C3/2 d2 cd|\
 e3/2 d/2d/2 c3/2 A/2- G3/2 E3/2 G/2| A2 D/2 D3/2 D2| c3/2 B/2| A3/2 D/2D/2 E3/2 DE GA|\
 G3/2 E/2D/2 C3/2 d2 cd| e3/2 d/2d/2 c3/2 A/2- G3/2 E3/2 G/2| A2 D/2 D3/2 D2|\
